X: 59
T:New Fee
M:2/4
L:1/8
R:Polka
K:D
|:D3B|AF2B|AF D>E|FE E2  |
|D3B|AF2B|AF EF|D3A:|
|:d2cd|BA FA|d2cd|B3c  |
|d2cd|BA FB|AF EF|D3A:|
|:d2e2|f3f|ed Bc|d3 A  |
|L:1/16B2dB A2F2|B2dBL:1/8AF|AF EF|D3A:|
